src/assets/filled/DollarCircle.svg

<svg width="24" height="24" viewBox="0 0 24 24"  xmlns="http://www.w3.org/2000/svg">
<path d="M12.75 15.92H13.4C14.05 15.92 14.59 15.34 14.59 14.64C14.59 13.77 14.28 13.6 13.77 13.42L12.76 13.07V15.92H12.75Z" />
<path d="M11.9701 1.89998C6.45007 1.91998 1.98007 6.40998 2.00007 11.93C2.02007 17.45 6.51007 21.92 12.0301 21.9C17.5501 21.88 22.0201 17.39 22.0001 11.87C21.9801 6.34998 17.4901 1.88998 11.9701 1.89998ZM14.2601 12C15.0401 12.27 16.0901 12.85 16.0901 14.64C16.0901 16.18 14.8801 17.42 13.4001 17.42H12.7501V18C12.7501 18.41 12.4101 18.75 12.0001 18.75C11.5901 18.75 11.2501 18.41 11.2501 18V17.42H10.8901C9.25007 17.42 7.92007 16.04 7.92007 14.34C7.92007 13.93 8.26007 13.59 8.67007 13.59C9.08007 13.59 9.42007 13.93 9.42007 14.34C9.42007 15.21 10.0801 15.92 10.8901 15.92H11.2501V12.54L9.74007 12C8.96007 11.73 7.91007 11.15 7.91007 9.35998C7.91007 7.81998 9.12007 6.57998 10.6001 6.57998H11.2501V5.99998C11.2501 5.58998 11.5901 5.24998 12.0001 5.24998C12.4101 5.24998 12.7501 5.58998 12.7501 5.99998V6.57998H13.1101C14.7501 6.57998 16.0801 7.95998 16.0801 9.65998C16.0801 10.07 15.7401 10.41 15.3301 10.41C14.9201 10.41 14.5801 10.07 14.5801 9.65998C14.5801 8.78998 13.9201 8.07998 13.1101 8.07998H12.7501V11.46L14.2601 12Z" />
<path d="M9.41992 9.37002C9.41992 10.24 9.72992 10.41 10.2399 10.59L11.2499 10.94V8.08002H10.5999C9.94992 8.08002 9.41992 8.66002 9.41992 9.37002Z" />
</svg>

<?xml version="1.0" encoding="UTF-8"?>
<svg width="24" height="24" viewBox="0 0 24 24" xmlns="http://www.w3.org/2000/svg">
 <path d="m12.75 15.92h0.65c0.65 0 1.19-0.58 1.19-1.28 0-0.87-0.31-1.04-0.82-1.22l-1.01-0.35v2.85h-0.01z"/>
 <path d="m11.97 1.9c-5.52 0.02-9.99 4.51-9.97 10.03 0.02 5.52 4.51 9.99 10.03 9.97 5.52-0.02 9.99-4.51 9.97-10.03-0.02-5.52-4.51-9.98-10.03-9.97zm2.29 10.1c0.78 0.27 1.83 0.85 1.83 2.64 0 1.54-1.21 2.78-2.69 2.78h-0.65v0.58c0 0.41-0.34 0.75-0.75 0.75s-0.75-0.34-0.75-0.75v-0.58h-0.36c-1.64 0-2.97-1.38-2.97-3.08 0-0.41 0.34-0.75 0.75-0.75s0.75 0.34 0.75 0.75c0 0.87 0.66003 1.58 1.47 1.58h0.36v-3.38l-1.51-0.54c-0.78-0.27-1.83-0.85-1.83-2.64 0-1.54 1.21-2.78 2.69-2.78h0.65v-0.58c0-0.41 0.34-0.75 0.75-0.75s0.75 0.34 0.75 0.75v0.58h0.36c1.64 0 2.97 1.38 2.97 3.08 0 0.41002-0.34 0.75002-0.75 0.75002s-0.75-0.34-0.75-0.75002c0-0.87-0.66-1.58-1.47-1.58h-0.36v3.38l1.51 0.54z"/>
 <path d="m9.4199 9.37c0 0.86998 0.31 1.04 0.81998 1.22l1.01 0.35v-2.86h-0.65c-0.64998 0-1.18 0.58-1.18 1.29z"/>
</svg>
